X: 12
%
U:~=!turn!
T: Athole Brose
C:Neil Gow's favourite.
O:Scotland
N:I've added some accidentals that I think were left out in the 4th (c nat), 8th (c nat), 12th (C nat), and 16th (C nat) full measures.
B:Keith Norman MacDonald : "The Skye collection of the best reels & strathspeys extant" : 1887
Z:Ralph Palmer
R:Strathspey
M:C
L:1/8
K:D
A !segno!|{/G}(F>D) D/D/D A,DDG | (F>D) D/D/D (G/A/B) (AG) | (FD) D/D/D A,DD=F | ((3D=FG) =CE =cGEG |
(F>D) D/D/D A,DDG | (F>D) D/D/D (G/A/B) AG | (F>D) D/D/D A,DD=F | ((3E=FG) (=CE) =cGEC ||
|: Ddd>c dedc | Add>e =fdec | Ddd>c dedA | =cd c2 AG E=C |
Ddd>c dedc | Add>e =fdec | d<d=f>d e>cd>A | =cd c2 AG E=C !segno!:|


